X:36
T:Beauty of the North, The
R:Slow Strathspey
C:Captain Simon Fraser
B:The Athole Collection
M:C
L:1/8
Q:1/4=140
K:E_
E|G,<E E>F G>A B<c|C<C F>E D<B, ~B,2|G,<E E>F G>A B<g|
f>d e/d/c/B/ e2e:|
g|e>g B<g e<g b>g|a>gf>e d<BB<g|e<g B>g e/f/g/a/ b<g|a>f e/d/c/B/ e2 e>f|
g<eB<G e<BG<E|A>GF>E D<B, ~B,2|G,<EE<A G<eB<g|f>d e/d/c/B/ e2e||

